lib/icons-source/star.svg

<svg width="24" height="23" viewBox="0 0 24 23" fill="none" xmlns="http://www.w3.org/2000/svg">
<g clip-path="url(#clip0_9_21)">
<rect width="24" height="23" fill="white"/>
<path d="M18.3096 23C17.9273 23 17.5448 22.8846 17.209 22.6531L12.1807 19.188C12.072 19.113 11.9258 19.113 11.8169 19.188L6.78883 22.6531C6.10639 23.1234 5.2306 23.1149 4.55769 22.6315C3.88404 22.1477 3.60444 21.3256 3.84541 20.537L5.62208 14.7209C5.65998 14.5968 5.61585 14.4604 5.51203 14.3812L0.751481 10.7464C0.0890061 10.2406 -0.163862 9.40514 0.107316 8.61821C0.377946 7.83345 1.09169 7.32622 1.9261 7.32622H7.86805C8.00922 7.32622 8.12732 7.2476 8.16926 7.12604L10.1761 1.29144C10.4464 0.506687 11.1617 0 11.9989 0C12.8361 0 13.5513 0.506687 13.8215 1.29108L15.8285 7.12604C15.8703 7.24778 15.9886 7.32622 16.1298 7.32622H22.0744C22.9087 7.32622 23.6222 7.83327 23.8927 8.61784C24.1639 9.40478 23.911 10.2399 23.2485 10.7455L18.4858 14.3812C18.3819 14.4606 18.3378 14.597 18.3757 14.7209L18.5317 15.2319C18.6815 15.7221 18.4012 16.2397 17.9055 16.3879C17.4102 16.5359 16.8869 16.2587 16.7371 15.7685L16.5811 15.2577C16.3196 14.4015 16.6247 13.4592 17.3404 12.9128L22.1034 9.27706C22.1246 9.26076 22.1244 9.25677 22.1235 9.24138C22.1215 9.21185 22.1047 9.18757 22.0979 9.18359C22.0979 9.18359 22.0915 9.18105 22.0744 9.18105H16.1298C15.1879 9.18105 14.3536 8.59538 14.0537 7.72367L12.0469 1.88889C12.0385 1.8648 12.035 1.85465 11.9989 1.85465C11.9626 1.85465 11.9592 1.8648 11.9507 1.88925L9.94409 7.72349C9.64417 8.59538 8.80994 9.18105 7.86805 9.18105H1.9261C1.90889 9.18105 1.90248 9.18359 1.90248 9.18359C1.8957 9.18739 1.87886 9.21148 1.87666 9.24119C1.87556 9.25732 1.8752 9.26148 1.8968 9.27815L6.65736 12.9128C7.37311 13.4594 7.67817 14.4015 7.41669 15.2575L5.63984 21.0736C5.63252 21.0979 5.62904 21.1089 5.65907 21.1305C5.688 21.1513 5.6966 21.1453 5.71729 21.131L10.7454 17.6661C11.4952 17.1495 12.5026 17.1495 13.2523 17.6661L18.2803 21.1312C18.301 21.1453 18.3096 21.1515 18.3386 21.1305C18.3686 21.1089 18.3651 21.0979 18.3578 21.0736L18.0969 20.2198C17.9471 19.7295 18.2274 19.2119 18.7231 19.0637C19.2184 18.9157 19.7417 19.1929 19.8915 19.6833L20.1522 20.537C20.3932 21.3256 20.1136 22.1477 19.4399 22.6315C19.0983 22.877 18.704 23 18.3096 23Z" fill="black"/>
</g>
<defs>
<clipPath id="clip0_9_21">
<rect width="24" height="23" fill="white"/>
</clipPath>
</defs>
</svg>

<svg viewBox="0 0 24 23" fill="none" xmlns="http://www.w3.org/2000/svg"><rect fill="white"/><path d="M18.31 23a1.93 1.93 0 0 1-1.101-.347l-5.028-3.465a.32.32 0 0 0-.364 0l-5.028 3.465a1.92 1.92 0 0 1-2.231-.021 1.87 1.87 0 0 1-.713-2.095l1.777-5.816a.31.31 0 0 0-.11-.34l-4.76-3.635a1.87 1.87 0 0 1-.645-2.128 1.9 1.9 0 0 1 1.82-1.292h5.941c.141 0 .26-.078.301-.2l2.007-5.835A1.9 1.9 0 0 1 12 0a1.9 1.9 0 0 1 1.822 1.291l2.008 5.835c.041.122.16.2.3.2h5.945c.835 0 1.548.507 1.819 1.292a1.87 1.87 0 0 1-.645 2.127l-4.762 3.636a.31.31 0 0 0-.11.34l.156.51a.926.926 0 0 1-.626 1.157.94.94 0 0 1-1.169-.62l-.156-.51a2.17 2.17 0 0 1 .76-2.345l4.762-3.636c.022-.016.021-.02.02-.036-.002-.03-.018-.053-.025-.057q.002-.002-.024-.003H16.13a2.18 2.18 0 0 1-2.076-1.457l-2.007-5.835c-.008-.024-.012-.034-.048-.034s-.04.01-.048.034L9.944 7.723a2.18 2.18 0 0 1-2.076 1.458H1.926q-.025.002-.024.003c-.006.003-.023.027-.025.057-.001.016-.002.02.02.037l4.76 3.635a2.17 2.17 0 0 1 .76 2.345L5.64 21.074c-.007.024-.011.035.02.056.028.021.037.015.057.001l5.028-3.465a2.22 2.22 0 0 1 2.507 0l5.028 3.465c.021.014.03.02.059 0 .03-.022.026-.033.019-.057l-.261-.854a.926.926 0 0 1 .626-1.156.94.94 0 0 1 1.169.62l.26.853a1.87 1.87 0 0 1-.712 2.095 1.93 1.93 0 0 1-1.13.368" fill="black"/></svg>
